app/assets/images/heroicons/outline/tv.svg

<svg width="24" height="24" viewBox="0 0 24 24" fill="none" xmlns="http://www.w3.org/2000/svg">
<path d="M6 20.25H18M10.5 17.25V20.25M13.5 17.25V20.25M3.375 17.25H20.625C21.2463 17.25 21.75 16.7463 21.75 16.125V4.875C21.75 4.25368 21.2463 3.75 20.625 3.75H3.375C2.75368 3.75 2.25 4.25368 2.25 4.875V16.125C2.25 16.7463 2.75368 17.25 3.375 17.25Z" stroke="#0F172A" stroke-width="1.5" stroke-linecap="round" stroke-linejoin="round"/>
</svg>

<svg xmlns="http://www.w3.org/2000/svg" fill="none" viewBox="0 0 24 24" stroke-width="1.5" stroke="currentColor" aria-hidden="true" data-slot="icon">
  <path stroke-linecap="round" stroke-linejoin="round" d="M6 20.25h12m-7.5-3v3m3-3v3m-10.125-3h17.25c.621 0 1.125-.504 1.125-1.125V4.875c0-.621-.504-1.125-1.125-1.125H3.375c-.621 0-1.125.504-1.125 1.125v11.25c0 .621.504 1.125 1.125 1.125Z"/>
</svg>
